svgs/payback.svg

<?xml version="1.0" encoding="UTF-8" standalone="no"?>
<!-- Created with Inkscape (http://www.inkscape.org/) -->

<svg
   version="1.1"
   id="svg2"
   width="192"
   height="192"
   viewBox="0 0 192 192"
   sodipodi:docname="payback.png"
   xmlns:inkscape="http://www.inkscape.org/namespaces/inkscape"
   xmlns:sodipodi="http://sodipodi.sourceforge.net/DTD/sodipodi-0.dtd"
   xmlns="http://www.w3.org/2000/svg"
   xmlns:svg="http://www.w3.org/2000/svg">
  <defs
     id="defs6" />
  <sodipodi:namedview
     id="namedview4"
     pagecolor="#ffffff"
     bordercolor="#000000"
     borderopacity="0.25"
     inkscape:showpageshadow="2"
     inkscape:pageopacity="0.0"
     inkscape:pagecheckerboard="0"
     inkscape:deskcolor="#d1d1d1"
     showgrid="false" />
  <g
     inkscape:groupmode="layer"
     inkscape:label="Image"
     id="g8">
    <path
       id="path291"
       style="fill-opacity:0;stroke:#000000;stroke-width:7.99961;stroke-linecap:round;stroke-linejoin:round;paint-order:stroke fill markers"
       d="M 63.000126,41.5 A 21.500195,21.500193 0 0 1 41.499931,63.000193 21.500195,21.500193 0 0 1 19.999737,41.5 21.500195,21.500193 0 0 1 41.499931,19.999807 21.500195,21.500193 0 0 1 63.000126,41.5 Z" />
    <path
       id="path291-7"
       style="fill-opacity:0;stroke:#000000;stroke-width:7.99961;stroke-linecap:round;stroke-linejoin:round;paint-order:stroke fill markers"
       d="M 117.50019,41.499996 A 21.500195,21.500193 0 0 1 96,63.000189 21.500195,21.500193 0 0 1 74.499805,41.499996 21.500195,21.500193 0 0 1 96,19.999804 21.500195,21.500193 0 0 1 117.50019,41.499996 Z" />
    <path
       id="path291-7-0"
       style="fill-opacity:0;stroke:#000000;stroke-width:7.99961;stroke-linecap:round;stroke-linejoin:round;paint-order:stroke fill markers"
       d="M 63.000195,96 A 21.500195,21.500193 0 0 1 41.5,117.50019 21.500195,21.500193 0 0 1 19.999805,96 21.500195,21.500193 0 0 1 41.5,74.499807 21.500195,21.500193 0 0 1 63.000195,96 Z" />
    <path
       id="path291-7-0-9"
       style="fill-opacity:0;stroke:#000000;stroke-width:7.99961;stroke-linecap:round;stroke-linejoin:round;paint-order:stroke fill markers"
       d="M 117.50019,150.5 A 21.500195,21.500193 0 0 1 96,172.00019 21.500195,21.500193 0 0 1 74.499805,150.5 21.500195,21.500193 0 0 1 96,128.99981 21.500195,21.500193 0 0 1 117.50019,150.5 Z" />
    <path
       id="path291-7-0-3"
       style="fill-opacity:0;stroke:#000000;stroke-width:7.99961;stroke-linecap:round;stroke-linejoin:round;paint-order:stroke fill markers"
       d="M 63.000195,150.5 A 21.500195,21.500193 0 0 1 41.5,172.00019 21.500195,21.500193 0 0 1 19.999805,150.5 21.500195,21.500193 0 0 1 41.5,128.99981 21.500195,21.500193 0 0 1 63.000195,150.5 Z" />
    <path
       id="path291-2"
       style="fill-opacity:0;stroke:#000000;stroke-width:12;stroke-linecap:round;stroke-linejoin:round;paint-order:stroke fill markers"
       d="M 170.02366,41.500004 A 19.523659,19.523663 0 0 1 150.5,61.023666 19.523659,19.523663 0 0 1 130.97634,41.500004 19.523659,19.523663 0 0 1 150.5,21.976341 19.523659,19.523663 0 0 1 170.02366,41.500004 Z" />
    <path
       id="path291-2-9"
       style="fill-opacity:0;stroke:#000000;stroke-width:12;stroke-linecap:round;stroke-linejoin:round;paint-order:stroke fill markers"
       d="M 170.04731,96.023666 A 19.523659,19.523663 0 0 1 150.52365,115.54733 19.523659,19.523663 0 0 1 130.99999,96.023666 19.523659,19.523663 0 0 1 150.52365,76.500004 19.523659,19.523663 0 0 1 170.04731,96.023666 Z" />
    <path
       id="path291-2-1"
       style="fill-opacity:0;stroke:#000000;stroke-width:12;stroke-linecap:round;stroke-linejoin:round;paint-order:stroke fill markers"
       d="M 170.04731,150.52367 A 19.523659,19.523663 0 0 1 150.52365,170.04733 19.523659,19.523663 0 0 1 130.99999,150.52367 19.523659,19.523663 0 0 1 150.52365,131 a 19.523659,19.523663 0 0 1 19.52366,19.52367 z" />
    <path
       id="path291-2-2"
       style="fill-opacity:0;stroke:#000000;stroke-width:12;stroke-linecap:round;stroke-linejoin:round;paint-order:stroke fill markers"
       d="M 115.54732,96.023666 A 19.523659,19.523663 0 0 1 96.023659,115.54733 19.523659,19.523663 0 0 1 76.5,96.023666 19.523659,19.523663 0 0 1 96.023659,76.500004 19.523659,19.523663 0 0 1 115.54732,96.023666 Z" />
  </g>
</svg>

<svg width="192" height="192" viewBox="0 0 192 192" xmlns="http://www.w3.org/2000/svg"><g fill="none"><path style="fill-opacity:0;stroke:#000;stroke-width:7.99961;stroke-linecap:round;stroke-linejoin:round;paint-order:stroke fill markers" d="M63 41.5A21.5 21.5 0 0 1 41.5 63 21.5 21.5 0 0 1 20 41.5 21.5 21.5 0 0 1 41.5 20 21.5 21.5 0 0 1 63 41.5ZM117.5 41.5A21.5 21.5 0 0 1 96 63a21.5 21.5 0 0 1-21.5-21.5A21.5 21.5 0 0 1 96 20a21.5 21.5 0 0 1 21.5 21.5ZM63 96a21.5 21.5 0 0 1-21.5 21.5A21.5 21.5 0 0 1 20 96a21.5 21.5 0 0 1 21.5-21.5A21.5 21.5 0 0 1 63 96ZM117.5 150.5A21.5 21.5 0 0 1 96 172a21.5 21.5 0 0 1-21.5-21.5A21.5 21.5 0 0 1 96 129a21.5 21.5 0 0 1 21.5 21.5ZM63 150.5A21.5 21.5 0 0 1 41.5 172 21.5 21.5 0 0 1 20 150.5 21.5 21.5 0 0 1 41.5 129 21.5 21.5 0 0 1 63 150.5Z"/><path style="fill-opacity:0;stroke:#000;stroke-width:12;stroke-linecap:round;stroke-linejoin:round;paint-order:stroke fill markers" d="M170.024 41.5A19.524 19.524 0 0 1 150.5 61.024 19.524 19.524 0 0 1 130.976 41.5 19.524 19.524 0 0 1 150.5 21.976 19.524 19.524 0 0 1 170.024 41.5ZM170.047 96.024a19.524 19.524 0 0 1-19.523 19.523A19.524 19.524 0 0 1 131 96.024 19.524 19.524 0 0 1 150.524 76.5a19.524 19.524 0 0 1 19.523 19.524ZM170.047 150.524a19.524 19.524 0 0 1-19.523 19.523A19.524 19.524 0 0 1 131 150.524 19.524 19.524 0 0 1 150.524 131a19.524 19.524 0 0 1 19.523 19.524zM115.547 96.024a19.524 19.524 0 0 1-19.523 19.523A19.524 19.524 0 0 1 76.5 96.024 19.524 19.524 0 0 1 96.024 76.5a19.524 19.524 0 0 1 19.523 19.524Z"/></g></svg>
